X:1
T:Con un dolente
T:André Vierendeels
T:Source : Melody from "Corona di Sacre canzoni o Laude spirituale" (Tenor voice). Firenze---Eredi Francesco Orofri---1689. Editor :  André Vierendeels ( 04/12/17). Notes : Original clef : C4 , other voices supplied editorially Music compiled by Matteo Coferati 
T:Con un dolente
T:©
T:©
C:André Vierendeels
Z:©
%%score [ 1 2 3 ]
L:1/8
Q:1/4=120
M:4/4
K:C
V:1 treble nm="Soprano" snm="S"
V:2 treble nm="Alto" snm="A"
V:3 treble-8 nm="Tenor" snm="T"
V:1
"^1)" A4 G2 G2 | G2 A2 G4 | c4 G2 A2 | A2 A2 F4 :: G2 G2 G2 cc | G4 G2 c2 | G2 A2 A2 A2 | %7
w: Con un do-|lent' ai- me,|Si- gnor, d'a-|van- ti'a te,|sgo- go l'a- cer- bo|pian- to, per|ri- tro- var pie-|
w: Pian- si la|not- t'e'l di,|c'ho pec- ca-|to'e por chi,|pom- pe d'In- fer- *|no ri- o,|non piu pe- car|
 F4 A2 AA | G2 G2 A4 | c2 d2 G2 A2 | ^F2 G2 AFAc | B8 :| %12
w: tà, dal la tua|gran bon- tà|nel re- * gno|San- * * * * *|to.|
w: vor- ro, che l'al-|ma mia da|ro. Tri- bu- to'a|Di- * * * * *|o.|
V:2
"^2)""^1)" F4 E2 D2 | _E2 C2 D4 | E4 E2 F2 | E2 E2 D4 :: D2 D2 D2 EE | D4 E2 E2 | D2 F2 E2 E2 | %7
w: Con un do-|lent' ai- mè,|Si- gnor, d'a-|van- ti'a te,|sfo- go l'a- cer- bo|pian- to, per|ri- tro- var pie-|
w: O fon- te|di vir- tu,|dol- cis- si-|me Gie- su,|ve- di l'ar- den- te|ze- lo di|que- sto cor hu-|
 D4 E2 EE | D2 E2 E4 | A2 G2 D2 E2 | D2 E2 D2 C2 | D8 :| %12
w: tà, dal- la tua|gran bon- ta|nel re- * gno|San- * * *|to.|
w: mil: deh non pren-|der- lo a|vil, pie- to- so'in|Cie- * * *|lo.|
V:3
"^3)""^1)""^4)" d4 B3 d | c2 A2 B4 | z2 A2 B2 d2 | d2 ^c2 d4 :: G2 GG G2 Ac | B4 B2 A2 | %6
w: Con un do-|lent' ai- mè,|Si- gnor, d'a-|van- ti'a te,|sfo- go l'a- cer- bo _|pian- to, per|
w: Per- don' al-|mo Si- gnor,|do- na con-|for- to'al cor,|ch'o- mai pen- ti- to _|chie- de, dell|
 B2 d2 d3 ^c | d4 c2 cc | B3 c ABcd | e2 B2 B3 A | A8 | G8 :| %12
w: ri- tro- var pie-|tà, dal- la tua|gran bon- tà _ _ _|_ nel re- gno|San-|to.|
w: er- ror suo mer-|cè, sem- pre gri-|dan- do ai- * * *|mè, con pu- ra|fe-|de.|

